img/adapt2.svg

<svg width="211pt" height="61pt" viewBox="0 0 211 61" xmlns="http://www.w3.org/2000/svg"><path d="M26.51 0h4.79c6.55 2.2 7.63 9.87 10.57 15.2-7.92-2.66-16.38-3.19-24.65-2.35C19.62 8.17 20.99 2 26.51 0zM13.95 20.03c5.42-1.68 11.63-2.64 16.95-.13 5.98 2.75 7.7 10.65 5.42 16.4-2.77 7-9.02 11.73-14.86 16.09-4.28 2.96-8.5 6.11-13.2 8.38-4.23-.7-7.09-4.65-7.53-8.72-.19-2.84 1.12-5.45 2.25-7.96 3.67-8.01 7.36-16.02 10.97-24.06zm38.5 17.87c1.69 4.36 4.41 8.42 5.03 13.13.04 4.19-2.9 9.16-7.54 9.18-9.41.02-18.83.03-28.24.3C32.73 54.23 44.86 48.5 52.45 37.9z" fill="#2b7bb8"/><path opacity=".9" d="M64.12 37.01C69.45 25.52 74.91 14.1 80.19 2.59c5.36 11.46 10.69 22.93 16.07 34.37-2.47.01-4.93.02-7.4.04-1.11-2.58-2.24-5.14-3.36-7.72-3.46-.04-6.93-.03-10.39-.04-1.19 2.57-2.36 5.16-3.51 7.75-2.49.01-4.98.02-7.48.02m13.62-13.82c1.71.04 3.41.07 5.12.1-.85-1.98-1.72-3.96-2.57-5.94-.85 1.95-1.7 3.89-2.55 5.84zm34.79-19.66h6.15c.05 11.16.07 22.32.1 33.49-4.58-.56-9.07.73-13.61.69-9.19-1.58-10.44-15.1-4.27-20.69 3.29-2.86 7.99-2.33 11.66-.57-.09-4.3-.04-8.61-.03-12.92m-6.21 17.87c-3.83 2.16-3.37 10.3 1.69 10.42 3.73.16 5.14-4.34 4.36-7.36-.29-2.79-3.66-4.39-6.05-3.06zM176 8.24l6.5.03c-.01 2.48 0 4.97 0 7.45l3.52.06c-.02 1.91-.02 3.82-.02 5.72-1.17.01-2.33.01-3.49.02.01 5.16.01 10.32.02 15.48H176c0-5.16 0-10.32-.01-15.48h-3.25v-5.77c.82 0 2.44-.01 3.26-.01v-7.5zm-49.32 8.38c3.05-2.36 7.1-1.62 10.52-.65 2.25-.13 4.5-.21 6.74-.29.02 7.1.01 14.2.04 21.3-3.67-.2-7.32.02-10.94.66-4.15.78-8.48-1.82-9.75-5.85-1.63-5.07-1.31-11.8 3.39-15.17m4.69 4.78c-3.08 2.1-3.15 7.24-.59 9.78 3.08 2.05 7.06-.59 6.97-4.12.89-3.62-2.73-7.73-6.38-5.66zm16.14-5.7c4.85.83 9.63-.8 14.42-.42 7.96 2.23 9.29 13.46 4.75 19.4-3.07 3.77-8.6 3.72-12.68 1.77V46h-6.53c.01-10.1 0-20.2.04-30.3m8.84 5.58c-3 1.65-3.12 6.19-1.47 8.84 2.07 3.1 7.59 1.76 7.6-2.16 1.11-3.69-1.96-8.6-6.13-6.68z" fill="#005986"/><path d="M191.49 8.47c3.42-4.08 9.75-4.51 14.42-2.56 4.47 1.96 5.91 7.65 4.28 11.97-1.92 5.25-6.15 9.12-9.58 13.38 3.38.01 6.75 0 10.13 0v5.73c-7.69-.02-15.38-.03-23.07-.02 4.15-4.97 8.29-9.96 12.44-14.93 1.66-2.12 3.49-4.35 3.87-7.1.33-2.87-3.24-4.91-5.65-3.51-1.78.67-1.89 2.85-2.6 4.34-2.15-.02-4.29-.04-6.43-.08.31-2.49.47-5.23 2.19-7.22zM74.18 51.3c1.29-2.49 4.08-1.31 6.05-.55l-1.29 1.81c-.85-.18-2.54-.52-3.39-.7 1.92 2.09 5.99 3.43 4.52 6.97-1.74 2.16-4.42 1.29-6.51.28.27-.53.81-1.58 1.08-2.11 1.14.49 2.31.84 3.53 1.06-.58-2.74-5.79-3.47-3.99-6.76zm17.03-1.16c3.9-1.98 8.89 2.33 7.23 6.43-1.01 3.79-6.53 4.98-9.03 1.98-2.48-2.42-1.6-7.31 1.8-8.41m.98 2c-3.82 1.38-1.01 7.66 2.52 5.56 3.41-1.52.88-7.2-2.52-5.56zm14.08-2.13c.56.01 1.67.03 2.22.03-.01 2.58-.01 5.15-.02 7.73 1.16-.01 2.31-.02 3.47-.02l.08 2.21c-1.92 0-3.84 0-5.75.01.01-3.32.01-6.64 0-9.96zm13.23.04c.54-.02 1.63-.04 2.18-.06-.01 2.7.05 5.41.54 8.08 1.15-.28 3.22.31 3.36-1.42.32-2.18.17-4.4.19-6.6.55-.01 1.65-.04 2.2-.06-.12 2.83.37 5.77-.45 8.51-1.64 2.53-6.74 2.54-7.67-.64-.6-2.56-.27-5.21-.35-7.81zm15.58 1.63c1.74-2.76 6.18-2.14 8.49-.35-.84.23-2.53.67-3.37.89.04 2.57.05 5.14.05 7.72-.55.02-1.66.06-2.22.07.01-2.65 0-5.31.01-7.97l-2.96-.36zm15.42-1.61l2.22-.08V60c-.55-.01-1.66-.05-2.22-.06.02-3.29.02-6.58 0-9.87zm12.76.16c3.32-1.77 8.12.8 7.74 4.76.28 3.81-4.48 6.6-7.75 4.7-3.89-1.63-3.83-7.81.01-9.46m.96 2.11c-2.47 1.06-1.8 5.26.86 5.62 1.46.62 2.82-.82 3.53-1.93.86-2.48-2.06-5.26-4.39-3.69zm14.54-3.17c2 2 3.99 4 5.99 6.01 0-1.71 0-3.42.01-5.12.55-.02 1.65-.06 2.21-.07-.01 3.63 0 7.27-.01 10.9-1.98-2.22-4.01-4.39-6.01-6.59.01 1.9.01 3.81.02 5.71-.55-.02-1.66-.05-2.22-.07.01-3.59.01-7.18.01-10.77zm15.99 4.64c.37-1.52.45-3.49 2.23-4.06 1.49-.18 2.85.62 4.25 1-.32.45-.96 1.34-1.28 1.79-.71-.15-2.14-.47-2.85-.62 1.03 2.36 5.06 2.96 4.23 6.11-.98 3.06-4.61 2.27-6.77 1.08.29-.55.88-1.63 1.18-2.18 1.06.61 2.18.96 3.38 1.07-.45-2.16-2.91-2.83-4.37-4.19z" fill="#f5832c"/></svg>

<?xml version="1.0" encoding="UTF-8" ?>
<!DOCTYPE svg PUBLIC "-//W3C//DTD SVG 1.1//EN" "http://www.w3.org/Graphics/SVG/1.1/DTD/svg11.dtd">
<svg width="211pt" height="61pt" viewBox="0 0 211 61" version="1.1" xmlns="http://www.w3.org/2000/svg">
<g id="#2b7bb8ff">
<path fill="#2b7bb8" opacity="1.00" d=" M 26.51 0.00 L 31.30 0.00 C 37.85 2.20 38.93 9.87 41.87 15.20 C 33.95 12.54 25.49 12.01 17.22 12.85 C 19.62 8.17 20.99 2.00 26.51 0.00 Z" />
<path fill="#2b7bb8" opacity="1.00" d=" M 13.95 20.03 C 19.37 18.35 25.58 17.39 30.90 19.90 C 36.88 22.65 38.60 30.55 36.32 36.30 C 33.55 43.30 27.30 48.03 21.46 52.39 C 17.18 55.35 12.96 58.50 8.26 60.77 C 4.03 60.07 1.17 56.12 0.73 52.05 C 0.54 49.21 1.85 46.60 2.98 44.09 C 6.65 36.08 10.34 28.07 13.95 20.03 Z" />
<path fill="#2b7bb8" opacity="1.00" d=" M 52.45 37.90 C 54.14 42.26 56.86 46.32 57.48 51.03 C 57.52 55.22 54.58 60.19 49.94 60.21 C 40.53 60.23 31.11 60.24 21.70 60.51 C 32.73 54.23 44.86 48.50 52.45 37.90 Z" />
</g>
<g id="#005986e5">
<path fill="#005986" opacity="0.90" d=" M 64.12 37.01 C 69.45 25.52 74.91 14.10 80.19 2.59 C 85.55 14.05 90.88 25.52 96.26 36.96 C 93.79 36.97 91.33 36.98 88.86 37.00 C 87.75 34.42 86.62 31.86 85.50 29.28 C 82.04 29.24 78.57 29.25 75.11 29.24 C 73.92 31.81 72.75 34.40 71.60 36.99 C 69.11 37.00 66.62 37.01 64.12 37.01 M 77.74 23.19 C 79.45 23.23 81.15 23.26 82.86 23.29 C 82.01 21.31 81.14 19.33 80.29 17.35 C 79.44 19.30 78.59 21.24 77.74 23.19 Z" />
<path fill="#005986" opacity="0.90" d=" M 112.53 3.53 C 114.58 3.53 116.63 3.53 118.68 3.53 C 118.73 14.69 118.75 25.85 118.78 37.02 C 114.20 36.46 109.71 37.75 105.17 37.71 C 95.98 36.13 94.73 22.61 100.90 17.02 C 104.19 14.16 108.89 14.69 112.56 16.45 C 112.47 12.15 112.52 7.84 112.53 3.53 M 106.32 21.40 C 102.49 23.56 102.95 31.70 108.01 31.82 C 111.74 31.98 113.15 27.48 112.37 24.46 C 112.08 21.67 108.71 20.07 106.32 21.40 Z" />
<path fill="#005986" opacity="0.90" d=" M 176.00 8.24 C 178.16 8.25 180.33 8.26 182.50 8.27 C 182.49 10.75 182.50 13.24 182.50 15.72 C 183.67 15.74 184.84 15.76 186.02 15.78 C 186.00 17.69 186.00 19.60 186.00 21.50 C 184.83 21.51 183.67 21.51 182.51 21.52 C 182.52 26.68 182.52 31.84 182.53 37.00 C 180.35 37.00 178.17 37.00 176.00 37.00 C 176.00 31.84 176.00 26.68 175.99 21.52 C 175.18 21.52 173.55 21.52 172.74 21.52 C 172.74 19.59 172.74 17.67 172.74 15.75 C 173.56 15.75 175.18 15.74 176.00 15.74 C 176.00 13.24 176.00 10.74 176.00 8.24 Z" />
<path fill="#005986" opacity="0.90" d=" M 126.68 16.62 C 129.73 14.26 133.78 15.00 137.20 15.97 C 139.45 15.84 141.70 15.76 143.94 15.68 C 143.96 22.78 143.95 29.88 143.98 36.98 C 140.31 36.78 136.66 37.00 133.04 37.64 C 128.89 38.42 124.56 35.82 123.29 31.79 C 121.66 26.72 121.98 19.99 126.68 16.62 M 131.37 21.40 C 128.29 23.50 128.22 28.64 130.78 31.18 C 133.86 33.23 137.84 30.59 137.75 27.06 C 138.64 23.44 135.02 19.33 131.37 21.40 Z" />
<path fill="#005986" opacity="0.90" d=" M 147.51 15.70 C 152.36 16.53 157.14 14.90 161.93 15.28 C 169.89 17.51 171.22 28.74 166.68 34.68 C 163.61 38.45 158.08 38.40 154.00 36.45 C 154.00 39.63 154.00 42.82 154.00 46.00 C 151.82 46.00 149.65 46.00 147.47 46.00 C 147.48 35.90 147.47 25.80 147.51 15.70 M 156.35 21.28 C 153.35 22.93 153.23 27.47 154.88 30.12 C 156.95 33.22 162.47 31.88 162.48 27.96 C 163.59 24.27 160.52 19.36 156.35 21.28 Z" />
</g>
<g id="#f5832cff">
<path fill="#f5832c" opacity="1.00" d=" M 191.49 8.47 C 194.91 4.39 201.24 3.96 205.91 5.91 C 210.38 7.87 211.82 13.56 210.19 17.88 C 208.27 23.13 204.04 27.00 200.61 31.26 C 203.99 31.27 207.36 31.26 210.74 31.26 C 210.74 33.17 210.74 35.08 210.74 36.99 C 203.05 36.97 195.36 36.96 187.67 36.97 C 191.82 32.00 195.96 27.01 200.11 22.04 C 201.77 19.92 203.60 17.69 203.98 14.94 C 204.31 12.07 200.74 10.03 198.33 11.43 C 196.55 12.10 196.44 14.28 195.73 15.77 C 193.58 15.75 191.44 15.73 189.30 15.69 C 189.61 13.20 189.77 10.46 191.49 8.47 Z" />
<path fill="#f5832c" opacity="1.00" d=" M 74.18 51.30 C 75.47 48.81 78.26 49.99 80.23 50.75 C 79.91 51.20 79.26 52.11 78.94 52.56 C 78.09 52.38 76.40 52.04 75.55 51.86 C 77.47 53.95 81.54 55.29 80.07 58.83 C 78.33 60.99 75.65 60.12 73.56 59.11 C 73.83 58.58 74.37 57.53 74.64 57.00 C 75.78 57.49 76.95 57.84 78.17 58.06 C 77.59 55.32 72.38 54.59 74.18 51.30 Z" />
<path fill="#f5832c" opacity="1.00" d=" M 91.21 50.14 C 95.11 48.16 100.10 52.47 98.44 56.57 C 97.43 60.36 91.91 61.55 89.41 58.55 C 86.93 56.13 87.81 51.24 91.21 50.14 M 92.19 52.14 C 88.37 53.52 91.18 59.80 94.71 57.70 C 98.12 56.18 95.59 50.50 92.19 52.14 Z" />
<path fill="#f5832c" opacity="1.00" d=" M 106.27 50.01 C 106.83 50.02 107.94 50.04 108.49 50.04 C 108.48 52.62 108.48 55.19 108.47 57.77 C 109.63 57.76 110.78 57.75 111.94 57.75 C 111.96 58.30 112.00 59.41 112.02 59.96 C 110.10 59.96 108.18 59.96 106.27 59.97 C 106.28 56.65 106.28 53.33 106.27 50.01 Z" />
<path fill="#f5832c" opacity="1.00" d=" M 119.50 50.05 C 120.04 50.03 121.13 50.01 121.68 49.99 C 121.67 52.69 121.73 55.40 122.22 58.07 C 123.37 57.79 125.44 58.38 125.58 56.65 C 125.90 54.47 125.75 52.25 125.77 50.05 C 126.32 50.04 127.42 50.01 127.97 49.99 C 127.85 52.82 128.34 55.76 127.52 58.50 C 125.88 61.03 120.78 61.04 119.85 57.86 C 119.25 55.30 119.58 52.65 119.50 50.05 Z" />
<path fill="#f5832c" opacity="1.00" d=" M 135.08 51.68 C 136.82 48.92 141.26 49.54 143.57 51.33 C 142.73 51.56 141.04 52.00 140.20 52.22 C 140.24 54.79 140.25 57.36 140.25 59.94 C 139.70 59.96 138.59 60.00 138.03 60.01 C 138.04 57.36 138.03 54.70 138.04 52.04 C 137.30 51.95 135.82 51.77 135.08 51.68 Z" />
<path fill="#f5832c" opacity="1.00" d=" M 150.50 50.07 C 151.06 50.05 152.17 50.01 152.72 49.99 C 152.72 53.33 152.72 56.67 152.72 60.00 C 152.17 59.99 151.06 59.95 150.50 59.94 C 150.52 56.65 150.52 53.36 150.50 50.07 Z" />
<path fill="#f5832c" opacity="1.00" d=" M 163.26 50.23 C 166.58 48.46 171.38 51.03 171.00 54.99 C 171.28 58.80 166.52 61.59 163.25 59.69 C 159.36 58.06 159.42 51.88 163.26 50.23 M 164.22 52.34 C 161.75 53.40 162.42 57.60 165.08 57.96 C 166.54 58.58 167.90 57.14 168.61 56.03 C 169.47 53.55 166.55 50.77 164.22 52.34 Z" />
<path fill="#f5832c" opacity="1.00" d=" M 178.76 49.17 C 180.76 51.17 182.75 53.17 184.75 55.18 C 184.75 53.47 184.75 51.76 184.76 50.06 C 185.31 50.04 186.41 50.00 186.97 49.99 C 186.96 53.62 186.97 57.26 186.96 60.89 C 184.98 58.67 182.95 56.50 180.95 54.30 C 180.96 56.20 180.96 58.11 180.97 60.01 C 180.42 59.99 179.31 59.96 178.75 59.94 C 178.76 56.35 178.76 52.76 178.76 49.17 Z" />
<path fill="#f5832c" opacity="1.00" d=" M 194.75 53.81 C 195.12 52.29 195.20 50.32 196.98 49.75 C 198.47 49.57 199.83 50.37 201.23 50.75 C 200.91 51.20 200.27 52.09 199.95 52.54 C 199.24 52.39 197.81 52.07 197.10 51.92 C 198.13 54.28 202.16 54.88 201.33 58.03 C 200.35 61.09 196.72 60.30 194.56 59.11 C 194.85 58.56 195.44 57.48 195.74 56.93 C 196.80 57.54 197.92 57.89 199.12 58.00 C 198.67 55.84 196.21 55.17 194.75 53.81 Z" />
</g>
</svg>
